public/library/ventuals-text-light.svg

<svg xmlns="http://www.w3.org/2000/svg" width="677" height="265" fill="none" viewBox="0 0 677 265"><path fill="#414141" d="M118.552 124.183c-.563 1.97-23.264 21.018-23.658 20.033-.691-1.728 6.52-13.836 8.878-23.48s1.478-26.099 2.71-28.069 12.634 29.546 12.07 31.516"/><path fill="#5b5b5b" d="M129.171 113.855c-6.975-8.269-21.95-21.926-22.443-21.434-.492.493 6.019 13.801 7.662 18.479 1.644 4.678 3.941 13.05 3.941 13.05s6.537 2.222 12.318 4.924c5.779 2.702 11.33 5.909 11.823 5.663s-6.327-12.413-13.301-20.682"/><path fill="#000" d="M131.43 128.807c-4.434-2.216-13.146-4.868-13.146-4.868s-8.326 8.237-9.804 9.714-13.05 10.563-13.543 10.603c-.317.025 5.24.193 11.113-.776a578 578 0 0 0 15.529-2.773c6.613-1.28 17.479-4.464 18.039-4.624s3.015-1.041 3.053-1.22-6.807-3.84-11.241-6.056"/><path fill="#414141" d="M167.742 126.294c.531-1.196-18.132-48.866-18.208-45.911-.043 1.671-.442 15.785-1.133 23.557-.691 7.773-2.333 15.113-3.37 20.64s-10.714 28.239-10.255 28.461c.458.22 32.435-25.552 32.966-26.747"/><path fill="#5b5b5b" d="M167.841 126.307s30.9 20.519 31.363 19.258-18.941-33.862-25.437-41.786-22.987-24.5-23.937-23.755c-.54.423 7.149 17.402 8.914 21.467 1.764 4.066 9.097 24.816 9.097 24.816"/><path fill="#000" d="M135.052 153.012c-.136-1.639 31.595-26.946 32.689-27.014s31.565 19.157 31.36 19.772-31.238 4.236-31.238 4.236-32.674 4.646-32.811 3.006"/><path fill="#5b5b5b" d="M106.655 148.557c-.459-.358-14.52-.201-15.351-.029s27.146 25.2 27.146 25.2 43.975 5.279 44.508 4.712 6.25-14.798 6.129-15.457c-.12-.659-54.503-.094-54.503-.094s-7.471-13.974-7.929-14.332"/><path fill="#5b5b5b" d="M169.094 163.022s-6.283 14.803-6.086 15.375c.197.573 17.852-10.296 24.197-14.164 6.346-3.869 15.375-8.698 15.792-9.73.215-.533-10.497.631-14.385 1.008-3.887.376-13.088 1.178-13.872 1.57-1.62.809-5.646 5.941-5.646 5.941"/><path fill="#414141" d="M91.282 165.851s-.625-16.431-.014-17.277c.612-.847 14.101 12.56 14.101 12.56s13.011 11.758 12.974 12.47c-.037.711-27.06-7.753-27.06-7.753M202.948 154.73c-.329-1.572-40.105 23.759-40.105 23.759l20.614 2.875s19.82-25.062 19.491-26.634"/><path fill="#000" d="m99.103 181.816 5.259 3.847s21.367.324 35.003.337c13.637.012 34.917-.273 34.917-.273s3.923-1.082 5.473-1.896 3.701-2.528 3.701-2.528l-20.469-2.841-44.59-4.888-27.12-7.723zM279.179 107.179l-16.604 51.495h-7.971L238 107.179h7.232l13.431 44.423 13.358-44.423zM317.271 135.321h-22.14v17.312h24.575v6.041h-31.438v-51.495h30.11v6.041h-23.247v16.06h22.14zM357.724 107.179h6.347v51.495h-7.675l-20.295-41.182h-.074v41.182h-6.346v-51.495h7.453l20.516 41.55h.074zM409.911 113.22h-15.424v45.454h-6.863V113.22h-15.497v-6.041h37.784zM446.232 142.54v-35.361h6.863v36.319q0 5.967-2.509 9.577-2.436 3.61-6.568 5.304-4.06 1.621-8.93 1.621-5.018 0-9.077-1.694-4.059-1.695-6.42-5.305-2.362-3.683-2.362-9.503v-36.319h6.863v35.361q0 4.494 1.476 6.999 1.55 2.432 4.059 3.462 2.51.958 5.461.958 3.026 0 5.535-1.031 2.51-1.032 4.059-3.463 1.55-2.505 1.55-6.925M492.736 158.674l-4.575-15.397h-17.785l-4.576 15.397h-7.085l16.31-51.495h8.634l16.236 51.495zm-20.663-21.143h14.39l-7.232-24.164zM509.796 107.179h6.863v45.454h24.574v6.041h-31.437zM585.524 122.06h-6.642q-.147-4.42-2.804-7.293-2.657-2.947-8.044-2.947-5.313 0-8.118 2.357-2.73 2.358-2.73 5.82 0 6.189 7.011 7.809l10.553 2.431q6.051 1.4 9.15 5.084t3.1 8.693q0 5.082-2.362 8.693-2.288 3.536-6.42 5.451-4.059 1.842-9.52 1.842-9.594 0-14.686-4.715-5.018-4.788-5.165-13.039h6.641q.075 5.156 3.469 8.398t9.889 3.241q5.83 0 8.486-2.504 2.731-2.505 2.731-6.41 0-3.462-1.919-5.451-1.845-1.99-5.682-2.873l-10.701-2.505q-5.608-1.326-8.56-4.715-2.952-3.463-2.952-8.767 0-4.346 2.214-7.588 2.214-3.315 6.199-5.157 4.059-1.915 9.593-1.915 5.388 0 9.225 1.989 3.911 1.989 5.978 5.452 2.066 3.389 2.066 7.661z"/></svg>

<svg width="677" height="265" viewBox="0 0 677 265" fill="none" xmlns="http://www.w3.org/2000/svg">
<path d="M118.552 124.183C117.989 126.153 95.2881 145.201 94.8939 144.216C94.2027 142.488 101.414 130.38 103.772 120.736C106.131 111.092 105.25 94.6372 106.482 92.6674C107.714 90.6977 119.116 122.213 118.552 124.183Z" fill="#414141"/>
<path d="M129.171 113.855C122.196 105.586 107.221 91.9287 106.728 92.4212C106.236 92.9136 112.747 106.222 114.39 110.9C116.034 115.578 118.331 123.95 118.331 123.95C118.331 123.95 124.868 126.172 130.649 128.874C136.428 131.576 141.979 134.783 142.472 134.537C142.965 134.291 136.145 122.124 129.171 113.855Z" fill="#5B5B5B"/>
<path d="M131.43 128.807C126.996 126.591 118.284 123.939 118.284 123.939C118.284 123.939 109.958 132.176 108.48 133.653C107.002 135.13 95.4294 144.216 94.9374 144.256C94.6203 144.281 100.177 144.449 106.05 143.48C111.924 142.511 117.167 141.56 121.579 140.707C128.192 139.427 139.058 136.243 139.618 136.083C140.178 135.924 142.633 135.042 142.671 134.863C142.708 134.683 135.864 131.023 131.43 128.807Z" fill="black"/>
<path d="M167.742 126.294C168.273 125.098 149.61 77.4277 149.534 80.383C149.491 82.0544 149.092 96.1676 148.401 103.94C147.71 111.713 146.068 119.053 145.031 124.58C143.994 130.107 134.317 152.819 134.776 153.041C135.234 153.261 167.211 127.489 167.742 126.294Z" fill="#414141"/>
<path d="M167.841 126.307C167.841 126.307 198.741 146.826 199.204 145.565C199.667 144.305 180.263 111.703 173.767 103.779C167.271 95.8554 150.78 79.2799 149.83 80.0243C149.29 80.4473 156.979 97.4263 158.744 101.491C160.508 105.557 167.841 126.307 167.841 126.307Z" fill="#5B5B5B"/>
<path d="M135.052 153.012C134.916 151.373 166.647 126.066 167.741 125.998C168.835 125.93 199.306 145.155 199.101 145.77C198.896 146.385 167.863 150.006 167.863 150.006C167.863 150.006 135.189 154.652 135.052 153.012Z" fill="black"/>
<path d="M106.655 148.557C106.196 148.199 92.1352 148.356 91.3039 148.528C90.4727 148.7 118.45 173.728 118.45 173.728C118.45 173.728 162.425 179.007 162.958 178.44C163.491 177.873 169.208 163.642 169.087 162.983C168.967 162.324 114.584 162.889 114.584 162.889C114.584 162.889 107.113 148.915 106.655 148.557Z" fill="#5B5B5B"/>
<path d="M169.094 163.022C169.094 163.022 162.811 177.825 163.008 178.397C163.205 178.97 180.86 168.101 187.205 164.233C193.551 160.364 202.58 155.535 202.997 154.503C203.212 153.97 192.5 155.134 188.612 155.511C184.725 155.887 175.524 156.689 174.74 157.081C173.12 157.89 169.094 163.022 169.094 163.022Z" fill="#5B5B5B"/>
<path d="M91.2824 165.851C91.2824 165.851 90.6567 149.42 91.2681 148.574C91.8796 147.727 105.369 161.134 105.369 161.134C105.369 161.134 118.38 172.892 118.343 173.604C118.306 174.315 91.2824 165.851 91.2824 165.851Z" fill="#414141"/>
<path d="M202.948 154.73C202.619 153.158 162.843 178.489 162.843 178.489L183.457 181.364C183.457 181.364 203.277 156.302 202.948 154.73Z" fill="#414141"/>
<path d="M99.1027 181.816L104.362 185.663C104.362 185.663 125.729 185.987 139.365 186C153.002 186.012 174.282 185.727 174.282 185.727C174.282 185.727 178.205 184.645 179.755 183.831C181.305 183.018 183.456 181.303 183.456 181.303L162.987 178.462L118.397 173.574L91.2766 165.851L99.1027 181.816Z" fill="black"/>
<path d="M279.179 107.179L262.575 158.674H254.604L238 107.179H245.232L258.663 151.602L272.021 107.179H279.179Z" fill="black"/>
<path d="M317.271 135.321H295.131V152.633H319.706V158.674H288.268V107.179H318.378V113.22H295.131V129.28H317.271V135.321Z" fill="black"/>
<path d="M357.724 107.179H364.071V158.674H356.396L336.101 117.492H336.027V158.674H329.681V107.179H337.134L357.65 148.729H357.724V107.179Z" fill="black"/>
<path d="M409.911 113.22H394.487V158.674H387.624V113.22H372.127V107.179H409.911V113.22Z" fill="black"/>
<path d="M446.232 142.54V107.179H453.095V143.498C453.095 147.476 452.258 150.668 450.586 153.075C448.962 155.482 446.773 157.25 444.018 158.379C441.312 159.46 438.335 160 435.088 160C431.743 160 428.717 159.435 426.011 158.306C423.305 157.176 421.165 155.408 419.591 153.001C418.016 150.546 417.229 147.378 417.229 143.498V107.179H424.092V142.54C424.092 145.536 424.584 147.869 425.568 149.539C426.601 151.16 427.954 152.314 429.627 153.001C431.3 153.64 433.12 153.959 435.088 153.959C437.105 153.959 438.95 153.615 440.623 152.928C442.296 152.24 443.649 151.086 444.682 149.465C445.715 147.795 446.232 145.487 446.232 142.54Z" fill="black"/>
<path d="M492.736 158.674L488.161 143.277H470.376L465.8 158.674H458.715L475.025 107.179H483.659L499.895 158.674H492.736ZM472.073 137.531H486.463L479.231 113.367L472.073 137.531Z" fill="black"/>
<path d="M509.796 107.179H516.659V152.633H541.233V158.674H509.796V107.179Z" fill="black"/>
<path d="M585.524 122.06H578.882C578.784 119.113 577.849 116.682 576.078 114.767C574.307 112.802 571.625 111.82 568.034 111.82C564.492 111.82 561.786 112.606 559.916 114.177C558.096 115.749 557.186 117.689 557.186 119.997C557.186 124.123 559.523 126.726 564.197 127.806L574.75 130.237C578.784 131.171 581.834 132.865 583.9 135.321C585.967 137.776 587 140.674 587 144.014C587 147.402 586.213 150.3 584.638 152.707C583.113 155.064 580.973 156.881 578.218 158.158C575.512 159.386 572.339 160 568.698 160C562.302 160 557.407 158.428 554.012 155.285C550.667 152.093 548.945 147.746 548.847 142.246H555.488C555.538 145.683 556.694 148.483 558.957 150.644C561.22 152.805 564.516 153.885 568.846 153.885C572.732 153.885 575.561 153.05 577.332 151.381C579.153 149.711 580.063 147.574 580.063 144.971C580.063 142.663 579.423 140.846 578.144 139.52C576.914 138.194 575.02 137.236 572.462 136.647L561.761 134.142C558.022 133.258 555.169 131.686 553.201 129.427C551.233 127.119 550.249 124.196 550.249 120.66C550.249 117.763 550.987 115.233 552.463 113.072C553.939 110.862 556.005 109.143 558.662 107.915C561.368 106.638 564.565 106 568.255 106C571.847 106 574.922 106.663 577.48 107.989C580.088 109.315 582.08 111.132 583.458 113.441C584.835 115.7 585.524 118.254 585.524 121.102V122.06Z" fill="black"/>
</svg>
